X: 16377
T: Gusty's Frolics
R: slip jig
M: 9/8
K: Dmajor
|:A,DD A,DD FEF|A,DD DFA GED|A,DD A,DD FEF|GFG ECE GFE:|
|:FDF ABF A2 G|FDF ABF GFE|FDF ABF A2 F|GFG ECE GFE:|
|:Add def gfg|Add dfa gfe|Add def gfg|ece ece gfe:|
|:fdf abf a 2g|fdf abf gfe|fdf abf a2 f|gfg ece gfe:|
|:aff dff dff|aff dfa gfe|aff dff dff|gfg ece gfe:|
|:dff a/g/fe d2 A|dff agf gfe|dff a/g/fe def|gfg ece gfe:|
|:faf dec dAF|DFA def gfe|faf ded def|gfg ece gfe:|
|:a/g/fe dfe d2 f|afd def gec|dec dec dAF|GAF GEF GFE:|
|:ABA dcB A2 B|AFD DFD EFG|AFA BGB =cBA|GFG ECE GFE:|

